X:200
T:Jenny Sutton. VWMLa.200
%%VWML:Anon2-3049-p124-0
F:http://www.vwml.org/record/Anon2/3049/p124
S:Anon. MS, late 18thC, Vaughan Williams Mem. Library
O:England;Yorkshire
Z:vmp/efdss.Simon Wilson. Reviewed PJH 2008.
M:C
L:1/8
Q:2/4=70
K:A
B|A/A/A A>c e>ce>c|A/A/A A>c B>GB>G|\
AA/A/ A>c e>ce>c|d>fd>B c2A:|
|:g|(aA)(aA) (gA)(gA)|f>ga>f e>cB.A|\
(aA)(aA) (gA)(gA)|fgaf f2e2|
.a.A.F.a .g.A.E.g|fADf ecec|\
A/A/A A>c eced|caBg A2A:|
T:Opera Reel. VWMLa.201
R:Reel
S:Anon. MS, late 18thC, Vaughan Williams Mem. Library
O:England;Yorkshire
Z:vmp/efdss.Simon Wilson. Reviewed PJH 2008.
M:C
L:1/8
Q:2/4=80
K:D
D/D/D DG FEFA|D/D/D DF EDEF|\
D/D/D DG FEFA|BdAF E2E2:|\
|:(dD)(dD) (dA).F.D|(dD)(dD) dgfe|\
(dD)(dD) dAFA|BdAF E2E2:|
|:(af)(af) (ge)(ge)|fdcd ecBA|\
afaf gege|fdec d/d/dd2:|\
|:DFAd FGeg|fdcd ecBA|\
DFAd FGeg|fdec d/d/dd2:|
